X:1
T:J'ai une bonne amie  Quimperl
C:An dro, traditionnel, fichier ABC par Bernard Loffet
L:1/8
Q:350
M:2/2
K:G
 [GG,]A[BG,]c [B2G,2]G,B | [c2D,2][B2G,2] [A2D,2][A2D,2] | [GG,]A[BG,]c [B2G,2]G,B | \
 [c2D,2][B2G,2] [A2D,2]D,2 | [GG,]A[BG,]c [B2G,2]G,B | [c2D,2][B2G,2] [A2D,2][A2D,2] | \
 [GG,]A[BG,]c [B2G,2]G,B | [c2D,2][B2G,2] [A2D,2]D,B | [cD,]B[cD,]A [B2G,2]G,G | [G2G,2][FD,]G [A2D,2]D,B | \
 [cD,]B[cD,]A [B2G,2]G,G | [A2D,2][F2D,2] [G2G,2]G,B | [cD,]B[cD,]A [B2G,2]G,G | [G2G,2][FD,]G [A2D,2]D,B | \
 [cD,]B[cD,]A [B2G,2]G,G | [A2D,2][F2D,2] [G2G,2]G,2 | \
Z:Created with TablEdit http://www.tabledit.com/ by Bernard Loffet
